build/img/icon-p1.svg

<svg width="247" height="26" viewBox="0 0 247 26" fill="none" xmlns="http://www.w3.org/2000/svg">
<g clip-path="url(#clip0)">
<path d="M1.55805 5.95093H0V20.0493H1.55805V5.95093Z" fill="#6E6E6E"/>
<path d="M18.6427 5.95093H20.4634L25.2491 16.7322L30.0025 5.95093H31.8592V20.0493H30.3011V8.6288L25.2707 19.917H25.1916L20.1612 8.65084V20.0493H18.6427V5.95093Z" fill="#6E6E6E"/>
<path d="M208.599 5.95093H210.42L215.209 16.7322L219.963 5.95093H221.816V20.0493H220.258V8.6288L215.227 19.917H215.148L210.118 8.65084V20.0493H208.599V5.95093Z" fill="#6E6E6E"/>
<path d="M46.8207 5.95093H51.9915C55.1076 5.95093 57.1586 7.64434 57.1586 10.4618C57.1586 13.5033 54.6722 15.0755 51.7324 15.0755H48.3788V20.0493H46.8207V5.95093ZM51.7936 13.6246C54.0821 13.6246 55.5825 12.3756 55.5825 10.4838C55.5825 8.47085 54.1037 7.42027 51.8727 7.42027H48.3824V13.6246H51.7936Z" fill="#6E6E6E"/>
<path d="M107.103 5.95093H113.04C114.738 5.95093 116.098 6.47254 116.966 7.3615C117.319 7.73481 117.597 8.17608 117.782 8.65973C117.967 9.14338 118.057 9.65977 118.045 10.179C118.045 12.5152 116.465 13.8854 114.296 14.2894L118.527 20.0493H116.613L112.626 14.5723H108.668V20.0493H107.11L107.103 5.95093ZM112.903 13.1397C114.976 13.1397 116.455 12.0377 116.455 10.201C116.455 8.47085 115.152 7.42394 112.925 7.42394H108.668V13.1397H112.903Z" fill="#6E6E6E"/>
<path d="M135.666 7.42027H131.031V5.95093H141.88V7.42027H137.245V20.0493H135.666V7.42027Z" fill="#6E6E6E"/>
<path d="M155.856 5.95093H157.414V12.214H165.384V5.95093H166.942V20.0493H165.384V13.7054H157.414V20.0493H155.856V5.95093Z" fill="#6E6E6E"/>
<path d="M181.292 13.0001C181.292 9.1137 184.153 5.7085 188.355 5.7085C192.558 5.7085 195.386 9.07329 195.386 13.0001C195.386 16.9269 192.508 20.2917 188.316 20.2917C184.124 20.2917 181.292 16.9306 181.292 13.0001ZM193.76 13.0001C193.76 9.79694 191.471 7.18151 188.316 7.18151C185.16 7.18151 182.918 9.75286 182.918 13.0001C182.918 16.2474 185.207 18.8224 188.363 18.8224C191.518 18.8224 193.76 16.251 193.76 13.0001Z" fill="#6E6E6E"/>
<path d="M236.918 5.95093H246.899V7.4019H238.476V12.214H246.014V13.665H238.476V18.5983H247V20.0493H236.918V5.95093Z" fill="#6E6E6E"/>
<path d="M87.9346 19.2007C87.9346 19.0207 87.8987 18.8333 87.8699 18.668C87.7199 17.6671 87.3689 16.7085 86.8389 15.8526C86.3089 14.9967 85.6112 14.2619 84.7897 13.6943C84.3423 13.9676 83.8571 14.1707 83.3504 14.2968C84.261 14.7651 85.0425 15.4584 85.6238 16.3135C86.2051 17.1687 86.5678 18.1586 86.6788 19.1933C85.4514 19.0423 84.2962 18.5203 83.3614 17.6943C82.4267 16.8683 81.755 15.776 81.4326 14.5576C80.8516 14.613 80.2755 14.7125 79.709 14.8551C79.3534 16.0123 78.6754 17.0388 77.7578 17.8092C76.8402 18.5796 75.7228 19.0606 74.5419 19.1933C74.8477 16.2914 76.6109 14.2086 79.7809 13.6833C81.4757 13.4078 82.53 13.2829 83.7067 12.8494C86.0132 12.0009 87.4669 9.87403 87.8627 7.31738C87.8879 7.14106 87.9095 6.95004 87.9239 6.78107V6.67454C87.9239 6.49087 87.9454 6.30721 87.9454 6.11619C87.9454 5.92518 87.9454 5.70845 87.9239 5.50641C87.7271 5.49172 87.528 5.48438 87.3265 5.48438C87.143 5.48438 86.9667 5.48437 86.7796 5.50641H86.6752C86.4881 5.50641 86.3154 5.54682 86.1211 5.57988C84.9141 5.78821 83.7771 6.30081 82.8132 7.07119C81.8494 7.84157 81.0891 8.84537 80.6014 9.99158C80.1135 8.85414 79.3568 7.85804 78.3991 7.09257C77.4414 6.3271 76.3127 5.81618 75.114 5.6056C74.9197 5.57254 74.7254 5.54682 74.5275 5.52846H74.4231C74.2432 5.52846 74.0633 5.50641 73.8762 5.50641C73.6891 5.50641 73.4768 5.50642 73.2789 5.52846C73.2645 5.72927 73.2573 5.93252 73.2573 6.13823C73.2573 6.32557 73.2573 6.50557 73.2789 6.69658V6.80311C73.2789 6.9978 73.3184 7.18881 73.3508 7.37983C73.5082 8.39002 73.8705 9.35554 74.4146 10.2145C74.9586 11.0735 75.6723 11.8071 76.5101 12.3682C76.9679 12.1117 77.4501 11.9037 77.9494 11.7474C77.0176 11.286 76.2159 10.5907 75.6193 9.72652C75.0226 8.86238 74.6507 7.85775 74.5382 6.80678C75.7564 6.94399 76.9061 7.45157 77.8383 8.26373C78.7706 9.0759 79.4423 10.1552 79.7665 11.3617C80.3171 11.2956 81.1699 11.2111 81.5153 11.1156C81.8612 9.95711 82.5362 8.92951 83.4548 8.16307C84.3734 7.39663 85.4943 6.92587 86.6752 6.81046C86.1931 11.2736 82.692 12.1221 80.4106 12.3535C78.4964 12.5593 74.1244 13.5915 73.3652 18.624C73.3364 18.8101 73.3136 19.0023 73.2968 19.2007C73.2968 19.2007 73.2609 19.2668 73.2968 19.3072C73.2968 19.4909 73.2753 19.6745 73.2753 19.8656C73.2753 20.0566 73.2753 20.2733 73.2968 20.4753C73.4936 20.49 73.6927 20.4974 73.8942 20.4974C74.0777 20.4974 74.254 20.4974 74.4411 20.4753H74.5454C74.7398 20.4753 74.9377 20.4313 75.1284 20.3982C76.3246 20.1857 77.4506 19.6738 78.4056 18.9085C79.3607 18.1431 80.1151 17.148 80.6014 16.0122C81.0944 17.1564 81.8594 18.1568 82.8271 18.9227C83.7948 19.6886 84.9344 20.1958 86.1427 20.3982C86.3226 20.4276 86.5025 20.4533 86.6932 20.4717H86.7976C86.9775 20.4717 87.1574 20.4937 87.3445 20.4937C87.5316 20.4937 87.7439 20.4937 87.9418 20.4717C87.9562 20.2708 87.9634 20.0676 87.9634 19.8619C87.9634 19.6745 87.9634 19.4945 87.9418 19.3035L87.9346 19.2007Z" fill="#6E6E6E"/>
<path d="M80.6014 26C78.0828 26 75.6207 25.2376 73.5266 23.8091C71.4324 22.3807 69.8002 20.3503 68.8364 17.9749C67.8726 15.5995 67.6204 12.9856 68.1118 10.4638C68.6031 7.94208 69.8159 5.6257 71.5969 3.80762C73.3778 1.98954 75.6468 0.751405 78.117 0.249797C80.5872 -0.251811 83.1477 0.00563277 85.4746 0.989572C87.8015 1.97351 89.7903 3.63975 91.1895 5.77759C92.5888 7.91543 93.3357 10.4288 93.3357 13C93.3319 16.4466 91.989 19.751 89.6017 22.1881C87.2143 24.6252 83.9775 25.9961 80.6014 26ZM80.6014 1.2967C78.3346 1.29961 76.1195 1.98846 74.2362 3.2762C72.3528 4.56394 70.8857 6.39276 70.0202 8.53152C69.1547 10.6703 68.9297 13.023 69.3737 15.2922C69.8177 17.5615 70.9106 19.6454 72.5145 21.2807C74.1184 22.9159 76.1611 24.0291 78.3845 24.4795C80.6079 24.9299 82.9122 24.6973 85.0062 23.811C87.1002 22.9248 88.8898 21.4248 90.1488 19.5005C91.4079 17.5762 92.0799 15.3141 92.0799 13C92.076 9.89475 90.865 6.918 88.7128 4.72363C86.5606 2.52925 83.6432 1.2967 80.6014 1.2967Z" fill="#6E6E6E"/>
</g>
<defs>
<clipPath id="clip0">
<rect width="247" height="26" fill="white"/>
</clipPath>
</defs>
</svg>

<svg width="247" height="26" fill="none" xmlns="http://www.w3.org/2000/svg"><g clip-path="url(#clip0)" fill="#6E6E6E"><path d="M1.558 5.95H0v14.1h1.558V5.95zm17.085 0h1.82l4.786 10.782 4.754-10.781h1.856v14.098h-1.558V8.63l-5.03 11.288h-.08l-5.03-11.266V20.05h-1.518V5.951zm189.956 0h1.821l4.789 10.782 4.754-10.781h1.853v14.098h-1.558V8.63l-5.031 11.288h-.079l-5.03-11.266V20.05h-1.519V5.951zm-161.779 0h5.172c3.116 0 5.167 1.694 5.167 4.512 0 3.041-2.487 4.614-5.427 4.614H48.38v4.973h-1.56V5.951zm4.974 7.675c2.288 0 3.789-1.25 3.789-3.141 0-2.013-1.48-3.064-3.71-3.064h-3.49v6.205h3.41zm55.309-7.675h5.937c1.698 0 3.058.523 3.926 1.412.353.373.631.814.816 1.298.185.483.275 1 .263 1.519 0 2.336-1.58 3.706-3.749 4.11l4.231 5.76h-1.914l-3.987-5.477h-3.958v5.477h-1.558l-.007-14.098zm5.8 7.19c2.073 0 3.552-1.102 3.552-2.939 0-1.73-1.303-2.777-3.53-2.777h-4.257v5.716h4.235zm22.763-5.72h-4.635V5.95h10.849v1.47h-4.635v12.63h-1.579V7.42zm20.19-1.47h1.558v6.264h7.97V5.951h1.558v14.098h-1.558v-6.344h-7.97v6.344h-1.558V5.951zM181.292 13c0-3.886 2.861-7.292 7.063-7.292 4.203 0 7.031 3.365 7.031 7.292 0 3.927-2.878 7.292-7.07 7.292s-7.024-3.361-7.024-7.292zm12.468 0c0-3.203-2.289-5.818-5.444-5.818-3.156 0-5.398 2.57-5.398 5.818 0 3.247 2.289 5.822 5.445 5.822 3.155 0 5.397-2.571 5.397-5.822zm43.158-7.05h9.981v1.452h-8.423v4.812h7.538v1.451h-7.538v4.933H247v1.451h-10.082V5.951zM87.935 19.2c0-.18-.036-.367-.065-.532-.15-1-.501-1.96-1.031-2.815a7.28 7.28 0 00-2.05-2.159 5.144 5.144 0 01-1.439.603 6.157 6.157 0 012.274 2.017 6.324 6.324 0 011.055 2.88 6.143 6.143 0 01-3.318-1.5 6.352 6.352 0 01-1.928-3.136c-.581.055-1.158.155-1.724.297a6.253 6.253 0 01-1.951 2.954 6.052 6.052 0 01-3.216 1.384c.306-2.902 2.069-4.984 5.239-5.51 1.695-.275 2.749-.4 3.926-.834 2.306-.848 3.76-2.975 4.156-5.532.025-.176.046-.367.06-.536v-.106c0-.184.022-.368.022-.559 0-.19 0-.408-.021-.61a8.023 8.023 0 00-.598-.022c-.183 0-.36 0-.546.022h-.105c-.187 0-.36.04-.554.074a7.282 7.282 0 00-3.308 1.491 7.49 7.49 0 00-2.212 2.92A7.487 7.487 0 0078.4 7.094a7.279 7.279 0 00-3.871-1.565h-.105c-.18 0-.36-.022-.547-.022-.187 0-.4 0-.597.022a8.789 8.789 0 00-.022.61c0 .188 0 .368.022.559v.106c0 .195.04.386.072.577a7.438 7.438 0 001.064 2.834 7.274 7.274 0 002.095 2.154c.458-.256.94-.464 1.44-.62a6.151 6.151 0 01-2.33-2.021 6.324 6.324 0 01-1.082-2.92 6.056 6.056 0 013.3 1.457 6.26 6.26 0 011.928 3.098c.551-.066 1.404-.15 1.75-.246a6.125 6.125 0 011.939-2.953 5.926 5.926 0 013.22-1.353c-.482 4.464-3.983 5.312-6.264 5.544-1.915.205-6.287 1.238-7.046 6.27a8.412 8.412 0 00-.068.577s-.036.066 0 .106c0 .184-.022.367-.022.559 0 .19 0 .407.022.61.197.014.396.021.597.021.184 0 .36 0 .547-.022h.104c.195 0 .393-.044.583-.077a7.276 7.276 0 003.278-1.49 7.483 7.483 0 002.195-2.896 7.487 7.487 0 002.226 2.91 7.28 7.28 0 003.866 1.55h.105c.18 0 .36.022.546.022.188 0 .4 0 .598-.022a8.77 8.77 0 00.021-.61c0-.188 0-.367-.021-.558l-.007-.103z"/><path d="M80.601 26a12.55 12.55 0 01-7.074-2.19 12.945 12.945 0 01-4.69-5.835 13.252 13.252 0 01-.725-7.511 13.085 13.085 0 013.485-6.656A12.656 12.656 0 0178.117.25c2.47-.502 5.03-.244 7.358.74a12.794 12.794 0 015.715 4.788A13.193 13.193 0 0193.335 13a13.153 13.153 0 01-3.734 9.188 12.619 12.619 0 01-9 3.812zm0-24.703a11.298 11.298 0 00-6.365 1.98 11.655 11.655 0 00-4.216 5.255 11.93 11.93 0 00-.646 6.76 11.78 11.78 0 003.14 5.989 11.394 11.394 0 005.87 3.199c2.224.45 4.528.217 6.622-.669a11.518 11.518 0 005.143-4.31A11.877 11.877 0 0092.079 13a11.843 11.843 0 00-3.366-8.276A11.36 11.36 0 0080.6 1.297z"/></g><defs><clipPath id="clip0"><path fill="#fff" d="M0 0h247v26H0z"/></clipPath></defs></svg>
